X: 30779
T: Oscar Wood's
R: jig
M: 6/8
K: Gmajor
BAG BAG|BcB ded|GBG BAG|A2 A- Aed|
BAG BAG|ded e2 e|d2 g- gAG|A3 G3:|
|:B2 d- ddB|c2 e- e2 B-|B2 d- dAG|A2 A- A2 G-|
G2 d- ddB|c2 e- e2 d-|d2 g- gAG|A3 G3:|

